!!!OTL: SO SINGEN WIR SO TRINKEN WIR
!!!ARE: Europa, Mitteleuropa, Deutschland
!!!SCT: F0763
!!!YEM: Copyright 1995, estate of Helmut Schaffrath.
**kern
*ICvox
*Ivox
*M3/4
*k[f#c#g#]
*A:
{8e
8cc#
8b
=1
4.a
8b
8cc#
8a
=2
4b
8r}
{8e
8dd
8cc#
=3
4.b
8cc#
8dd
8b
=4
2cc#}
{4cc#
=5
8b
8cc#
8dd
8cc#
8b
8cc#
=6
2dd}
{4dd
=7
8cc#
8dd
8ee
8dd
8cc#
8dd
=8
2ee}
{4cc#
=9
2dd
4d
=10
2e}
{4e
=11
4e
4cc#
8.b
16a
=12
4a
8r}
==
!!!AGN: Geselligkeits -, Trink - Lied, Neujahr
!!!ONB: ESAC (Essen Associative Code) Database: FINK
!!!AMT: simple triple
!!!AIN: vox
!!!EED: Helmut Schaffrath
!!!EEV: 1.0
*-
